dist/img/icons/telegram.svg

<svg width="26" height="23" viewBox="0 0 26 23" fill="none" xmlns="http://www.w3.org/2000/svg">
<path d="M23.4299 0.755723L0.838079 9.93565C-0.0710467 10.3631 -0.378545 11.2193 0.618303 11.6839L6.41413 13.6246L20.4275 4.49886C21.1927 3.92594 21.976 4.07873 21.302 4.70893L9.26632 16.1918L8.88824 21.0513C9.23843 21.8016 9.87963 21.8051 10.2886 21.4322L13.6185 18.1122L19.3214 22.612C20.6459 23.4383 21.3666 22.905 21.6516 21.3906L25.3922 2.72707C25.7806 0.862859 25.1182 0.0414915 23.4299 0.755723Z" fill="#134731"/>
</svg>

<svg width="26" height="23" fill="none" xmlns="http://www.w3.org/2000/svg"><path d="M23.43.756L.838 9.936c-.909.427-1.217 1.283-.22 1.748l5.796 1.94L20.427 4.5c.766-.573 1.549-.42.875.21L9.266 16.192l-.378 4.86c.35.75.992.753 1.4.38l3.33-3.32 5.703 4.5c1.325.826 2.046.293 2.33-1.221l3.741-18.664C25.781.863 25.118.041 23.43.756z" fill="#134731"/></svg>
